X:112
T:Gossoon that Beat His Father (reel), The
B:CRE2.247 (GasÃÂÃÂÃÂÃÂºr a Thug Leadradh dÃÂÃÂÃÂÃÂ¡ Athair)
F:file ID: cre.2/112goss_b
Q:180
L:1/8
M:4/4
R:reel
K:Am
g^f|eAA2 eAdA|BGG2 Bcdg|eAA2 eAdA|Beed BAA2|
eAA2 eAdA|BGG2 Bcd2|eged BAGA|Beed BAA2||
|:abag ede^f|g2bg dgbg|abag e^f/e/ d2|Beed BAA2:|

%%%

